src/render/svg/elasticsearch.svg

<svg class="icon" viewBox="0 0 1024 1024" version="1.1" xmlns="http://www.w3.org/2000/svg" p-id="1462"
     width="32" height="32">
  <path
    d="M42.666667 505.6c0 51.2 6.4 108.8 23.424 153.6H413.013333c12.8-51.2 17.045333-95.957333 17.045334-147.2a648.405333 648.405333 0 0 0-17.045334-147.2H59.733333C49.066667 409.6 42.666667 454.4 42.666667 505.6z m698.154666-140.8H476.885333c12.757333 44.8 17.024 95.957333 17.024 147.2s-6.4 95.957333-17.024 147.2h263.914667c83.008 0 146.88-63.978667 146.88-147.2 0-83.221333-63.872-147.2-146.88-147.2h0.021333zM95.850667 294.4h300.16c-36.202667-76.8-76.629333-147.2-123.52-204.8-76.586667 51.2-142.549333 121.6-176.597334 204.8h-0.042666z m698.154666 0c76.629333 0 140.48-32 187.306667-83.2C887.68 83.2 730.176 0 553.493333 0c-87.253333 0-157.504 19.2-229.866666 57.6 59.584 64 100.053333 147.2 129.834666 230.4l340.544 6.4zM89.493333 729.6h300.117334c-29.802667 76.8-70.229333 147.2-123.456 198.4-70.229333-44.8-136.213333-115.2-176.64-198.4z m704.533334 0c76.629333 0 140.48 32 187.306666 83.2-93.653333 127.957333-257.536 211.2-427.84 211.2-87.253333 0-157.504-25.6-229.866666-57.6 59.584-63.978667 100.053333-147.2 129.834666-230.4l340.565334-6.4z"
    ></path>
</svg>

<svg xmlns="http://www.w3.org/2000/svg" width="32" height="32" class="icon" viewBox="0 0 1024 1024">
    <path d="M42.66667 505.6c0 51.2 6.4 108.8 23.424 153.6h346.92266c12.8-51.2 17.04534-95.95733 17.04534-147.2a648.405 648.405 0 0 0-17.04534-147.2h-353.28c-10.66666 44.8-17.06666 89.6-17.06666 140.8m698.15466-140.8h-263.936c12.75734 44.8 17.024 95.95733 17.024 147.2s-6.4 95.95733-17.024 147.2H740.8c83.008 0 146.88-63.97867 146.88-147.2S823.808 364.8 740.8 364.8zM95.85067 294.4h300.16c-36.20267-76.8-76.62934-147.2-123.52-204.8C195.904 140.8 129.94133 211.2 95.89333 294.4zm698.15466 0c76.62934 0 140.48-32 187.30667-83.2C887.68 83.2 730.176 0 553.49333 0 466.24 0 395.98933 19.2 323.62667 57.6c59.584 64 100.05333 147.2 129.83466 230.4zm-704.512 435.2h300.11734c-29.80267 76.8-70.22934 147.2-123.456 198.4-70.22934-44.8-136.21334-115.2-176.64-198.4zm704.53334 0c76.62933 0 140.48 32 187.30666 83.2-93.65333 127.95733-257.536 211.2-427.84 211.2-87.25333 0-157.504-25.6-229.86666-57.6C383.21067 902.42133 423.68 819.2 453.46133 736z"/>
</svg>
